X:1
T:James Gibb editions
T:When shades of night around us close - Barnby
%%score [ ( 1 2 ) ( 3 4 ) ]
L:1/8
Q:1/4=75
M:4/4
K:Eb
V:1 treble nm="Midi_74"
V:2 treble 
V:3 bass nm="Midi_74"
V:4 bass 
V:1
"^St Boniface (L.M.)""^Charles Coffin\n(1676-1749)""^When shades of night around us close""^Joseph Barnby\n(1838-96)" G2 | %1
 G2 A2 B2 G2 | F3 G E2 || e2 |"^1" d2 c2 B2 B2 | c2 B2 =A2 ||[M:4/4] _A2 | G2 B2 A2 G2 | %8
 F2 c2 B2 ||!f! B2 | B2 _d2 c2 A2 | G3 F E4 || A4 G4 |] %13
V:2
 E2 | E2 E2 E2 E2 | E2 D2 E2 || E2 | E2 E2 E2 E2 | E2 E2 C2 ||[M:4/4] F2 | E2 _D2 C2 =E2 | %8
 F2 F2 F2 || F2 | E2 =E2 F2 F2 | D2 D2 E4 || E4 E4 |] %13
V:3
!p! B,2 | C2 A,2 G,2 B,2 | A,2 A,2 G,2 || G,2 | G,2 A,2 B,2 B,2 | =A,2 B,2 C2 ||[M:4/4] B,2 | %7
 B,2 G,2 A,2"^1. When shades of night around us close,\nAnd weary limbs in sleep repose,\nThe faithful soul awake may be,\nAnd longing sigh, O Lord, to Thee.\n\n2. Thou true Desire of nations, hear,\nThou Word of God, Thou Saviour dear;\nIn pity heed our humble cries,\nAnd bid at length the fallen rise.\n\n3. O come, Redeemer, come and free\nThine own from guilt and misery;\nThe gates of heaven again unfold,\nWhich Adam’s sin had closed of old.\n\n4. All praise, eternal Son, to Thee,\nWhose advent sets Thy people free,\nWhom with the Father we adore\nAnd Holy Ghost for evermore." B,2 | %8
 A,2 =A,2 B,2 || D2 | E2 B,2 A,2 C2 | B,2 A,2 G,4 || C4 B,4 |] %13
V:4
 E,2 | C,2 C,2 B,,2 B,,2 | B,,2 B,,2 C,2 || C,2 | B,,2 A,,2 G,,2 G,2 | _G,2 G,2 F,2 ||[M:4/4] D,2 | %7
 E,2 E,2 E,2 C,2 | F,2 _E,2 D,2 || _A,2 | G,2 G,2 A,2 A,,2 | B,,2 B,,2 E,4 || A,,4 E,4 |] %13

